assets/components_previews/forms/dark/form.svg

<svg xmlns="http://www.w3.org/2000/svg" width="320" height="232" fill="none" viewBox="0 0 320 232"><g filter="url(#a)"><rect width="162" height="32" x="79" y="62" fill="#0E0F10" rx="8"/><path fill="#5F43D0" d="M91.7 83V72.92h2.786l3.794 7.546V72.92h2.1V83h-2.786L93.8 75.454V83zm12.043.14c-1.414 0-2.324-.77-2.324-1.974 0-1.33 1.05-2.142 2.842-2.394l1.764-.252v-.364c0-.574-.392-.924-1.134-.924-.714 0-1.134.252-1.26.714h-2.002c.182-1.288 1.344-2.226 3.332-2.226 2.044 0 3.164.938 3.164 2.66v3.15c0 .476.056.924.21 1.47h-2.1c-.098-.336-.14-.7-.154-1.162-.448.854-1.26 1.302-2.338 1.302m-.224-2.254c0 .462.364.714.924.714.882 0 1.582-.56 1.582-1.19v-.658l-1.414.21c-.756.112-1.092.406-1.092.924M109.564 83v-7.14h2.058v1.302c.49-.882 1.344-1.442 2.478-1.442 1.148 0 1.918.56 2.226 1.372.504-.84 1.372-1.372 2.534-1.372 1.54 0 2.408.952 2.408 2.352V83h-2.1v-4.536c0-.728-.406-1.064-1.092-1.064-.91 0-1.61.658-1.61 1.652V83h-2.1v-4.536c0-.728-.406-1.064-1.092-1.064-.91 0-1.61.658-1.61 1.652V83zm16.488.14c-2.38 0-3.92-1.512-3.92-3.71 0-2.212 1.554-3.71 3.85-3.71 2.212 0 3.626 1.428 3.626 3.57 0 .308-.028.546-.056.77h-5.292c.14 1.064.742 1.568 1.778 1.568.672 0 1.162-.21 1.414-.714h1.974c-.476 1.386-1.596 2.226-3.374 2.226m-.098-5.908c-.882 0-1.47.476-1.666 1.442h3.192c-.084-.98-.644-1.442-1.526-1.442"/></g><g filter="url(#b)"><rect width="162" height="32" x="79" y="100" fill="#0E0F10" rx="8"/><path fill="#5F43D0" d="M91.7 121v-10.08h7.336v1.652h-5.18v2.464h4.858v1.624h-4.858v2.688h5.348V121zm8.729 0v-7.14h2.058v1.302c.49-.882 1.344-1.442 2.478-1.442 1.148 0 1.918.56 2.226 1.372.504-.84 1.372-1.372 2.534-1.372 1.54 0 2.408.952 2.408 2.352V121h-2.1v-4.536c0-.728-.406-1.064-1.092-1.064-.91 0-1.61.658-1.61 1.652V121h-2.1v-4.536c0-.728-.406-1.064-1.092-1.064-.91 0-1.61.658-1.61 1.652V121zm14.952.14c-1.414 0-2.324-.77-2.324-1.974 0-1.33 1.05-2.142 2.842-2.394l1.764-.252v-.364c0-.574-.392-.924-1.134-.924-.714 0-1.134.252-1.26.714h-2.002c.182-1.288 1.344-2.226 3.332-2.226 2.044 0 3.164.938 3.164 2.66v3.15c0 .476.056.924.21 1.47h-2.1c-.098-.336-.14-.7-.154-1.162-.448.854-1.26 1.302-2.338 1.302m-.224-2.254c0 .462.364.714.924.714.882 0 1.582-.56 1.582-1.19v-.658l-1.414.21c-.756.112-1.092.406-1.092.924m5.674-5.978v-2.268h2.24v2.268zm.07 8.092v-7.14h2.1V121zm3.598 0v-10.08h2.1V121z"/></g><g filter="url(#c)"><rect width="162" height="32" x="79" y="138" fill="#5F43D0" rx="8"/><path fill="#0E0F10" d="M141.165 159.126c-2.618 0-4.242-1.218-4.508-3.346h2.072c.126 1.078 1.106 1.75 2.534 1.75 1.162 0 1.806-.434 1.806-1.134 0-.644-.336-1.022-1.246-1.274l-1.876-.518c-1.932-.532-2.772-1.456-2.772-2.884 0-1.82 1.498-2.954 3.794-2.954 2.352 0 3.822 1.204 4.004 3.038h-2.072c-.182-.98-.938-1.442-2.058-1.442-.98 0-1.596.406-1.596 1.036 0 .49.224.896 1.232 1.176l1.876.518c1.974.546 2.786 1.47 2.786 2.898 0 2.016-1.47 3.136-3.976 3.136m7.237.014c-1.526 0-2.394-1.092-2.394-2.45v-4.83h2.1v4.424c0 .784.406 1.176 1.12 1.176.938 0 1.638-.714 1.638-1.764v-3.836h2.1V159h-2.058v-1.302c-.49.882-1.344 1.442-2.506 1.442m10.427 0c-1.162 0-1.988-.49-2.296-1.33V159h-2.058v-10.08h2.1v4.088c.35-.798 1.204-1.288 2.366-1.288 1.918 0 3.15 1.442 3.15 3.682 0 2.268-1.288 3.738-3.262 3.738m-.588-1.68c.98 0 1.666-.742 1.666-2.044s-.686-2.016-1.694-2.016c-.98 0-1.666.728-1.666 2.03s.686 2.03 1.694 2.03m4.85 1.54v-7.14h2.058v1.302c.49-.882 1.344-1.442 2.478-1.442 1.148 0 1.918.56 2.226 1.372.504-.84 1.372-1.372 2.534-1.372 1.54 0 2.408.952 2.408 2.352V159h-2.1v-4.536c0-.728-.406-1.064-1.092-1.064-.91 0-1.61.658-1.61 1.652V159h-2.1v-4.536c0-.728-.406-1.064-1.092-1.064-.91 0-1.61.658-1.61 1.652V159zm12.976-8.092v-2.268h2.24v2.268zm.07 8.092v-7.14h2.1V159zm6.877.154c-1.834 0-2.702-.868-2.702-2.688v-3.01h-1.33v-1.596h1.33v-1.596l2.1-.784v2.38h1.848v1.596h-1.848v3.08c0 .644.35.952 1.092.952.28 0 .518-.056.756-.14v1.596c-.252.14-.7.21-1.246.21"/></g><defs><filter id="a" width="202" height="72" x="59" y="54" color-interpolation-filters="sRGB" filterUnits="userSpaceOnUse"><feFlood flood-opacity="0" result="BackgroundImageFix"/><feColorMatrix in="SourceAlpha" result="hardAlpha" values="0 0 0 0 0 0 0 0 0 0 0 0 0 0 0 0 0 0 127 0"/><feOffset dy="12"/><feGaussianBlur stdDeviation="10"/><feComposite in2="hardAlpha" operator="out"/><feColorMatrix values="0 0 0 0 0 0 0 0 0 0 0 0 0 0 0 0 0 0 0.03 0"/><feBlend in2="BackgroundImageFix" result="effect1_dropShadow_10159_2672"/><feColorMatrix in="SourceAlpha" result="hardAlpha" values="0 0 0 0 0 0 0 0 0 0 0 0 0 0 0 0 0 0 127 0"/><feOffset dy="2"/><feGaussianBlur stdDeviation="3"/><feComposite in2="hardAlpha" operator="out"/><feColorMatrix values="0 0 0 0 0 0 0 0 0 0 0 0 0 0 0 0 0 0 0.05 0"/><feBlend in2="effect1_dropShadow_10159_2672" result="effect2_dropShadow_10159_2672"/><feBlend in="SourceGraphic" in2="effect2_dropShadow_10159_2672" result="shape"/></filter><filter id="b" width="202" height="72" x="59" y="92" color-interpolation-filters="sRGB" filterUnits="userSpaceOnUse"><feFlood flood-opacity="0" result="BackgroundImageFix"/><feColorMatrix in="SourceAlpha" result="hardAlpha" values="0 0 0 0 0 0 0 0 0 0 0 0 0 0 0 0 0 0 127 0"/><feOffset dy="12"/><feGaussianBlur stdDeviation="10"/><feComposite in2="hardAlpha" operator="out"/><feColorMatrix values="0 0 0 0 0 0 0 0 0 0 0 0 0 0 0 0 0 0 0.03 0"/><feBlend in2="BackgroundImageFix" result="effect1_dropShadow_10159_2672"/><feColorMatrix in="SourceAlpha" result="hardAlpha" values="0 0 0 0 0 0 0 0 0 0 0 0 0 0 0 0 0 0 127 0"/><feOffset dy="2"/><feGaussianBlur stdDeviation="3"/><feComposite in2="hardAlpha" operator="out"/><feColorMatrix values="0 0 0 0 0 0 0 0 0 0 0 0 0 0 0 0 0 0 0.05 0"/><feBlend in2="effect1_dropShadow_10159_2672" result="effect2_dropShadow_10159_2672"/><feBlend in="SourceGraphic" in2="effect2_dropShadow_10159_2672" result="shape"/></filter><filter id="c" width="202" height="72" x="59" y="130" color-interpolation-filters="sRGB" filterUnits="userSpaceOnUse"><feFlood flood-opacity="0" result="BackgroundImageFix"/><feColorMatrix in="SourceAlpha" result="hardAlpha" values="0 0 0 0 0 0 0 0 0 0 0 0 0 0 0 0 0 0 127 0"/><feOffset dy="12"/><feGaussianBlur stdDeviation="10"/><feComposite in2="hardAlpha" operator="out"/><feColorMatrix values="0 0 0 0 0 0 0 0 0 0 0 0 0 0 0 0 0 0 0.03 0"/><feBlend in2="BackgroundImageFix" result="effect1_dropShadow_10159_2672"/><feColorMatrix in="SourceAlpha" result="hardAlpha" values="0 0 0 0 0 0 0 0 0 0 0 0 0 0 0 0 0 0 127 0"/><feOffset dy="2"/><feGaussianBlur stdDeviation="3"/><feComposite in2="hardAlpha" operator="out"/><feColorMatrix values="0 0 0 0 0 0 0 0 0 0 0 0 0 0 0 0 0 0 0.05 0"/><feBlend in2="effect1_dropShadow_10159_2672" result="effect2_dropShadow_10159_2672"/><feBlend in="SourceGraphic" in2="effect2_dropShadow_10159_2672" result="shape"/></filter></defs></svg>

<svg width="320" height="232" viewBox="0 0 320 232" fill="none" xmlns="http://www.w3.org/2000/svg">
<g filter="url(#filter0_dd_10159_2672)">
<rect x="79" y="62" width="162" height="32" rx="8" fill="#0E0F10"/>
<path d="M91.7 83V72.92H94.486L98.28 80.466V72.92H100.38V83H97.594L93.8 75.454V83H91.7ZM103.743 83.14C102.329 83.14 101.419 82.37 101.419 81.166C101.419 79.836 102.469 79.024 104.261 78.772L106.025 78.52V78.156C106.025 77.582 105.633 77.232 104.891 77.232C104.177 77.232 103.757 77.484 103.631 77.946H101.629C101.811 76.658 102.973 75.72 104.961 75.72C107.005 75.72 108.125 76.658 108.125 78.38V81.53C108.125 82.006 108.181 82.454 108.335 83H106.235C106.137 82.664 106.095 82.3 106.081 81.838C105.633 82.692 104.821 83.14 103.743 83.14ZM103.519 80.886C103.519 81.348 103.883 81.6 104.443 81.6C105.325 81.6 106.025 81.04 106.025 80.41V79.752L104.611 79.962C103.855 80.074 103.519 80.368 103.519 80.886ZM109.564 83V75.86H111.622V77.162C112.112 76.28 112.966 75.72 114.1 75.72C115.248 75.72 116.018 76.28 116.326 77.092C116.83 76.252 117.698 75.72 118.86 75.72C120.4 75.72 121.268 76.672 121.268 78.072V83H119.168V78.464C119.168 77.736 118.762 77.4 118.076 77.4C117.166 77.4 116.466 78.058 116.466 79.052V83H114.366V78.464C114.366 77.736 113.96 77.4 113.274 77.4C112.364 77.4 111.664 78.058 111.664 79.052V83H109.564ZM126.052 83.14C123.672 83.14 122.132 81.628 122.132 79.43C122.132 77.218 123.686 75.72 125.982 75.72C128.194 75.72 129.608 77.148 129.608 79.29C129.608 79.598 129.58 79.836 129.552 80.06H124.26C124.4 81.124 125.002 81.628 126.038 81.628C126.71 81.628 127.2 81.418 127.452 80.914H129.426C128.95 82.3 127.83 83.14 126.052 83.14ZM125.954 77.232C125.072 77.232 124.484 77.708 124.288 78.674H127.48C127.396 77.694 126.836 77.232 125.954 77.232Z" fill="#5F43D0"/>
</g>
<g filter="url(#filter1_dd_10159_2672)">
<rect x="79" y="100" width="162" height="32" rx="8" fill="#0E0F10"/>
<path d="M91.7 121V110.92H99.036V112.572H93.856V115.036H98.714V116.66H93.856V119.348H99.204V121H91.7ZM100.429 121V113.86H102.487V115.162C102.977 114.28 103.831 113.72 104.965 113.72C106.113 113.72 106.883 114.28 107.191 115.092C107.695 114.252 108.563 113.72 109.725 113.72C111.265 113.72 112.133 114.672 112.133 116.072V121H110.033V116.464C110.033 115.736 109.627 115.4 108.941 115.4C108.031 115.4 107.331 116.058 107.331 117.052V121H105.231V116.464C105.231 115.736 104.825 115.4 104.139 115.4C103.229 115.4 102.529 116.058 102.529 117.052V121H100.429ZM115.381 121.14C113.967 121.14 113.057 120.37 113.057 119.166C113.057 117.836 114.107 117.024 115.899 116.772L117.663 116.52V116.156C117.663 115.582 117.271 115.232 116.529 115.232C115.815 115.232 115.395 115.484 115.269 115.946H113.267C113.449 114.658 114.611 113.72 116.599 113.72C118.643 113.72 119.763 114.658 119.763 116.38V119.53C119.763 120.006 119.819 120.454 119.973 121H117.873C117.775 120.664 117.733 120.3 117.719 119.838C117.271 120.692 116.459 121.14 115.381 121.14ZM115.157 118.886C115.157 119.348 115.521 119.6 116.081 119.6C116.963 119.6 117.663 119.04 117.663 118.41V117.752L116.249 117.962C115.493 118.074 115.157 118.368 115.157 118.886ZM120.831 112.908V110.64H123.071V112.908H120.831ZM120.901 121V113.86H123.001V121H120.901ZM124.499 121V110.92H126.599V121H124.499Z" fill="#5F43D0"/>
</g>
<g filter="url(#filter2_dd_10159_2672)">
<rect x="79" y="138" width="162" height="32" rx="8" fill="#5F43D0"/>
<path d="M141.165 159.126C138.547 159.126 136.923 157.908 136.657 155.78H138.729C138.855 156.858 139.835 157.53 141.263 157.53C142.425 157.53 143.069 157.096 143.069 156.396C143.069 155.752 142.733 155.374 141.823 155.122L139.947 154.604C138.015 154.072 137.175 153.148 137.175 151.72C137.175 149.9 138.673 148.766 140.969 148.766C143.321 148.766 144.791 149.97 144.973 151.804H142.901C142.719 150.824 141.963 150.362 140.843 150.362C139.863 150.362 139.247 150.768 139.247 151.398C139.247 151.888 139.471 152.294 140.479 152.574L142.355 153.092C144.329 153.638 145.141 154.562 145.141 155.99C145.141 158.006 143.671 159.126 141.165 159.126ZM148.402 159.14C146.876 159.14 146.008 158.048 146.008 156.69V151.86H148.108V156.284C148.108 157.068 148.514 157.46 149.228 157.46C150.166 157.46 150.866 156.746 150.866 155.696V151.86H152.966V159H150.908V157.698C150.418 158.58 149.564 159.14 148.402 159.14ZM158.829 159.14C157.667 159.14 156.841 158.65 156.533 157.81V159H154.475V148.92H156.575V153.008C156.925 152.21 157.779 151.72 158.941 151.72C160.859 151.72 162.091 153.162 162.091 155.402C162.091 157.67 160.803 159.14 158.829 159.14ZM158.241 157.46C159.221 157.46 159.907 156.718 159.907 155.416C159.907 154.114 159.221 153.4 158.213 153.4C157.233 153.4 156.547 154.128 156.547 155.43C156.547 156.732 157.233 157.46 158.241 157.46ZM163.091 159V151.86H165.149V153.162C165.639 152.28 166.493 151.72 167.627 151.72C168.775 151.72 169.545 152.28 169.853 153.092C170.357 152.252 171.225 151.72 172.387 151.72C173.927 151.72 174.795 152.672 174.795 154.072V159H172.695V154.464C172.695 153.736 172.289 153.4 171.603 153.4C170.693 153.4 169.993 154.058 169.993 155.052V159H167.893V154.464C167.893 153.736 167.487 153.4 166.801 153.4C165.891 153.4 165.191 154.058 165.191 155.052V159H163.091ZM176.067 150.908V148.64H178.307V150.908H176.067ZM176.137 159V151.86H178.237V159H176.137ZM183.014 159.154C181.18 159.154 180.312 158.286 180.312 156.466V153.456H178.982V151.86H180.312V150.264L182.412 149.48V151.86H184.26V153.456H182.412V156.536C182.412 157.18 182.762 157.488 183.504 157.488C183.784 157.488 184.022 157.432 184.26 157.348V158.944C184.008 159.084 183.56 159.154 183.014 159.154Z" fill="#0E0F10"/>
</g>
<defs>
<filter id="filter0_dd_10159_2672" x="59" y="54" width="202" height="72" filterUnits="userSpaceOnUse" color-interpolation-filters="sRGB">
<feFlood flood-opacity="0" result="BackgroundImageFix"/>
<feColorMatrix in="SourceAlpha" type="matrix" values="0 0 0 0 0 0 0 0 0 0 0 0 0 0 0 0 0 0 127 0" result="hardAlpha"/>
<feOffset dy="12"/>
<feGaussianBlur stdDeviation="10"/>
<feComposite in2="hardAlpha" operator="out"/>
<feColorMatrix type="matrix" values="0 0 0 0 0 0 0 0 0 0 0 0 0 0 0 0 0 0 0.03 0"/>
<feBlend mode="normal" in2="BackgroundImageFix" result="effect1_dropShadow_10159_2672"/>
<feColorMatrix in="SourceAlpha" type="matrix" values="0 0 0 0 0 0 0 0 0 0 0 0 0 0 0 0 0 0 127 0" result="hardAlpha"/>
<feOffset dy="2"/>
<feGaussianBlur stdDeviation="3"/>
<feComposite in2="hardAlpha" operator="out"/>
<feColorMatrix type="matrix" values="0 0 0 0 0 0 0 0 0 0 0 0 0 0 0 0 0 0 0.05 0"/>
<feBlend mode="normal" in2="effect1_dropShadow_10159_2672" result="effect2_dropShadow_10159_2672"/>
<feBlend mode="normal" in="SourceGraphic" in2="effect2_dropShadow_10159_2672" result="shape"/>
</filter>
<filter id="filter1_dd_10159_2672" x="59" y="92" width="202" height="72" filterUnits="userSpaceOnUse" color-interpolation-filters="sRGB">
<feFlood flood-opacity="0" result="BackgroundImageFix"/>
<feColorMatrix in="SourceAlpha" type="matrix" values="0 0 0 0 0 0 0 0 0 0 0 0 0 0 0 0 0 0 127 0" result="hardAlpha"/>
<feOffset dy="12"/>
<feGaussianBlur stdDeviation="10"/>
<feComposite in2="hardAlpha" operator="out"/>
<feColorMatrix type="matrix" values="0 0 0 0 0 0 0 0 0 0 0 0 0 0 0 0 0 0 0.03 0"/>
<feBlend mode="normal" in2="BackgroundImageFix" result="effect1_dropShadow_10159_2672"/>
<feColorMatrix in="SourceAlpha" type="matrix" values="0 0 0 0 0 0 0 0 0 0 0 0 0 0 0 0 0 0 127 0" result="hardAlpha"/>
<feOffset dy="2"/>
<feGaussianBlur stdDeviation="3"/>
<feComposite in2="hardAlpha" operator="out"/>
<feColorMatrix type="matrix" values="0 0 0 0 0 0 0 0 0 0 0 0 0 0 0 0 0 0 0.05 0"/>
<feBlend mode="normal" in2="effect1_dropShadow_10159_2672" result="effect2_dropShadow_10159_2672"/>
<feBlend mode="normal" in="SourceGraphic" in2="effect2_dropShadow_10159_2672" result="shape"/>
</filter>
<filter id="filter2_dd_10159_2672" x="59" y="130" width="202" height="72" filterUnits="userSpaceOnUse" color-interpolation-filters="sRGB">
<feFlood flood-opacity="0" result="BackgroundImageFix"/>
<feColorMatrix in="SourceAlpha" type="matrix" values="0 0 0 0 0 0 0 0 0 0 0 0 0 0 0 0 0 0 127 0" result="hardAlpha"/>
<feOffset dy="12"/>
<feGaussianBlur stdDeviation="10"/>
<feComposite in2="hardAlpha" operator="out"/>
<feColorMatrix type="matrix" values="0 0 0 0 0 0 0 0 0 0 0 0 0 0 0 0 0 0 0.03 0"/>
<feBlend mode="normal" in2="BackgroundImageFix" result="effect1_dropShadow_10159_2672"/>
<feColorMatrix in="SourceAlpha" type="matrix" values="0 0 0 0 0 0 0 0 0 0 0 0 0 0 0 0 0 0 127 0" result="hardAlpha"/>
<feOffset dy="2"/>
<feGaussianBlur stdDeviation="3"/>
<feComposite in2="hardAlpha" operator="out"/>
<feColorMatrix type="matrix" values="0 0 0 0 0 0 0 0 0 0 0 0 0 0 0 0 0 0 0.05 0"/>
<feBlend mode="normal" in2="effect1_dropShadow_10159_2672" result="effect2_dropShadow_10159_2672"/>
<feBlend mode="normal" in="SourceGraphic" in2="effect2_dropShadow_10159_2672" result="shape"/>
</filter>
</defs>
</svg>
